X:2
T:Polka CGF 5- (pk06513)
S:Hanny Christen. Bd.IV  Aargau, Basel I. S.186 (pk06513) orig. F,C,Bb
S:Basel - Repertoire der 'Dorfmusik Binningen'. S.140-201
S:Ãœberliefert durch Jakob LÃ¼scher-MÃ¼ller
%%MIDI program 21
R:Polka
M:2/4
L:1/8
K: C %%MIDI gchordon
!>!{/E}G |: "C"GC C!>!G | "G7"GB, B,!>!A | AD/2E/2 F!>!A | "C"GC/2D/2 E!>!G | GC C!>!A | "Dm"AD DD/2E/2 | FG/2A/2 GB, |1 \
"C"C2z{/E}G :|2
 "C"CE CD |: [K:G] "G"DB,/2D/2 BB | GD/2G/2 BB | "D7"cB AG | FE DC | "G"B,G,/2B,/2 DD | \
DB,/2D/2 GB | "D7"cD EF |1
 "G"GD/2D/2 DD :|2 "G"GG/2G/2 GC |: [K:F] "F"F3C | A3C | FA cA | \
"C7"B3C | E3C | G3C | EG Bd |
 "F"c3C | F3C | A3C | \
FA cF | "Bb"D2EF | "C7"GA Bd | "F"c3A/2B/2 | "C7"cG/2A/2 BD/2E/2 |1 "F"FF Fz :|2 "F"FA Fz |] 
% pk06513
% Jan 11, 2017

